X: 34
T:The Concertina Reel
M:4/4
L:1/8
R:Reel
K:D
FG | A2 FG BAFA | ((3ABA)  FA BAFA | B2 cA BAcA | BAcA BAFA |
A2 FA BAFA ((3ABA) FA BAFE | FABc d3 B | AFEF D2 :|| 
zd | Ad ~d2 Ad ~d2 | Ad ~d2 BAFA | B2 cA BAcA | BAcA BAFA | 
Ad ~d2 Ad ~d2 | Ad ~d2 BAFE | FABc d3 B | AFEF D2 :||
